svgs/openwrt.svg

<svg xmlns="http://www.w3.org/2000/svg" viewBox="0 0 192 192"><path d="M80.632 174.849c-19.425-4.396-37.412-19.813-45.524-39.023-5.616-13.299-6.627-30.55-2.552-43.541 1.911-6.09 7.211-16.942 10.082-20.64l1.635-2.106 5.85 5.791 5.849 5.79-2.472 3.898c-8.379 13.209-9.047 33.315-1.596 48.075 5.593 11.079 16.753 20.615 28.71 24.53 8.182 2.68 22.252 2.894 29.442.449 12.101-4.116 21.507-11.259 27.626-20.978 4.763-7.567 6.975-14.188 7.514-22.488.663-10.218-.849-17.894-5.206-26.434l-3.616-7.085 5.69-5.646 5.689-5.646 2.133 2.821c5.533 7.317 10.099 19.299 11.572 30.363 4.008 30.117-15.637 60.759-45.084 70.32-5.648 1.835-8.648 2.236-18.533 2.482-8.232.204-13.429-.077-17.209-.932Zm8.891-55.358c-6.742-5.026-5.89-14.911 1.6-18.55 4.703-2.285 8.963-1.525 12.766 2.277 2.389 2.39 2.798 3.387 2.798 6.832 0 4.508-2.413 8.907-5.711 10.41-3.265 1.487-8.783 1.02-11.453-.969ZM75.209 90.293l-5.698-5.742 2.916-2.559c7.245-6.362 19.8-9.768 29.413-7.981 5.673 1.055 13.829 4.739 17.904 8.086l2.527 2.076-5.859 5.936c-5.838 5.915-5.865 5.93-7.593 4.307-6.061-5.694-20.079-5.472-26.591.421-1.167 1.056-1.991.522-7.019-4.544ZM54.485 69.569c-5.271-5.319-5.362-5.486-3.88-7.124 2.14-2.364 14.563-10.571 18.594-12.282 16.037-6.81 35.603-7.142 51.201-.87 6.415 2.58 13.255 6.776 18.135 11.127l3.955 3.525-5.587 5.638-5.586 5.638-4.523-3.381c-10.576-7.906-23.278-11.837-34.772-10.759-9.976.934-20.993 5.475-27.812 11.462-1.549 1.36-3.156 2.472-3.571 2.472-.416 0-3.185-2.451-6.154-5.446ZM34.258 49.341l-5.407-5.455 2.062-2.21c3.804-4.079 15.294-12.221 22.016-15.601 8.862-4.456 19.739-7.997 28.381-9.24 10.185-1.465 28.997-.632 37.893 1.677 14.133 3.669 29.182 11.687 39.979 21.3l4.056 3.612-5.909 5.833-5.91 5.832-3.808-3.511c-15.428-14.22-40.615-21.826-62.065-18.74-14.562 2.094-27.384 7.654-39.069 16.939-3.474 2.761-6.428 5.02-6.564 5.02-.136 0-2.681-2.455-5.655-5.456Z"/></svg>

<svg
    xmlns="http://www.w3.org/2000/svg"
    viewBox="0 0 192 192"
    id="vector">
    <path
        id="path"
        d="M 80.632 174.849 C 61.207 170.453 43.22 155.036 35.108 135.826 C 29.492 122.527 28.481 105.276 32.556 92.285 C 34.467 86.195 39.767 75.343 42.638 71.645 L 44.273 69.539 L 50.123 75.33 L 55.972 81.12 L 53.5 85.018 C 45.121 98.227 44.453 118.333 51.904 133.093 C 57.497 144.172 68.657 153.708 80.614 157.623 C 88.796 160.303 102.866 160.517 110.056 158.072 C 122.157 153.956 131.563 146.813 137.682 137.094 C 142.445 129.527 144.657 122.906 145.196 114.606 C 145.859 104.388 144.347 96.712 139.99 88.172 L 136.374 81.087 L 142.064 75.441 L 147.753 69.795 L 149.886 72.616 C 155.419 79.933 159.985 91.915 161.458 102.979 C 165.466 133.096 145.821 163.738 116.374 173.299 C 110.726 175.134 107.726 175.535 97.841 175.781 C 89.609 175.985 84.412 175.704 80.632 174.849 Z M 89.523 119.491 C 82.781 114.465 83.633 104.58 91.123 100.941 C 95.826 98.656 100.086 99.416 103.889 103.218 C 106.278 105.608 106.687 106.605 106.687 110.05 C 106.687 114.558 104.274 118.957 100.976 120.46 C 97.711 121.947 92.193 121.48 89.523 119.491 Z M 75.209 90.293 L 69.511 84.551 L 72.427 81.992 C 79.672 75.63 92.227 72.224 101.84 74.011 C 107.513 75.066 115.669 78.75 119.744 82.097 L 122.271 84.173 L 116.412 90.109 C 110.574 96.024 110.547 96.039 108.819 94.416 C 102.758 88.722 88.74 88.944 82.228 94.837 C 81.061 95.893 80.237 95.359 75.209 90.293 Z M 54.485 69.569 C 49.214 64.25 49.123 64.083 50.605 62.445 C 52.745 60.081 65.168 51.874 69.199 50.163 C 85.236 43.353 104.802 43.021 120.4 49.293 C 126.815 51.873 133.655 56.069 138.535 60.42 L 142.49 63.945 L 136.903 69.583 L 131.317 75.221 L 126.794 71.84 C 116.218 63.934 103.516 60.003 92.022 61.081 C 82.046 62.015 71.029 66.556 64.21 72.543 C 62.661 73.903 61.054 75.015 60.639 75.015 C 60.223 75.015 57.454 72.564 54.485 69.569 Z M 34.258 49.341 L 28.851 43.886 L 30.913 41.676 C 34.717 37.597 46.207 29.455 52.929 26.075 C 61.791 21.619 72.668 18.078 81.31 16.835 C 91.495 15.37 110.307 16.203 119.203 18.512 C 133.336 22.181 148.385 30.199 159.182 39.812 L 163.238 43.424 L 157.329 49.257 L 151.419 55.089 L 147.611 51.578 C 132.183 37.358 106.996 29.752 85.546 32.838 C 70.984 34.932 58.162 40.492 46.477 49.777 C 43.003 52.538 40.049 54.797 39.913 54.797 C 39.777 54.797 37.232 52.342 34.258 49.341 Z"
        fill="#000000"
        stroke-width="12"/>
</svg>
